X:1
T:The Wealthy London Prentice
M:4/4
L:1/4
K:Eb
 e| c3/2 B/2 c C| E3/2 F/2G/2 G/2B/2-G/2| FF/2-E/2 C C| C3| C| E F G G|\
 e- g fe/2-d/2| c =BG/2-A/2 B| c3|C/2-D/2| E3/2 F/2 G G| e2 c d| e cG/2-=A/2 =B|\
 c3|e/2-d/2| c3/2 B/2 c C| E F G G| FF/2-E/2 C C| C3||
